assets/svg/icon_post_italictext_off.svg

<svg width="24" height="24" viewBox="0 0 24 24" fill="none" xmlns="http://www.w3.org/2000/svg">
<path d="M8.80078 15.4C8.46941 15.4 8.20078 15.6686 8.20078 16C8.20078 16.3314 8.46941 16.6 8.80078 16.6V15.4ZM13.0674 16.6C13.3988 16.6 13.6674 16.3314 13.6674 16C13.6674 15.6686 13.3988 15.4 13.0674 15.4V16.6ZM10.9341 7.4C10.6027 7.4 10.3341 7.66863 10.3341 8C10.3341 8.33137 10.6027 8.6 10.9341 8.6V7.4ZM15.2008 8.6C15.5322 8.6 15.8008 8.33137 15.8008 8C15.8008 7.66863 15.5322 7.4 15.2008 7.4V8.6ZM12 19.4C10.0974 19.4 8.73084 19.3987 7.69086 19.2589C6.66814 19.1214 6.05156 18.8599 5.59584 18.4042L4.74731 19.2527C5.46316 19.9685 6.37518 20.2928 7.53096 20.4482C8.66949 20.6013 10.1313 20.6 12 20.6V19.4ZM3.4 12C3.4 13.8687 3.39873 15.3305 3.5518 16.469C3.70719 17.6248 4.03146 18.5368 4.74731 19.2527L5.59584 18.4042C5.14011 17.9484 4.8786 17.3319 4.7411 16.3091C4.60127 15.2692 4.6 13.9026 4.6 12H3.4ZM19.4 12C19.4 13.9026 19.3987 15.2692 19.2589 16.3091C19.1214 17.3319 18.8599 17.9484 18.4042 18.4042L19.2527 19.2527C19.9685 18.5368 20.2928 17.6248 20.4482 16.469C20.6013 15.3305 20.6 13.8687 20.6 12H19.4ZM12 20.6C13.8687 20.6 15.3305 20.6013 16.469 20.4482C17.6248 20.2928 18.5368 19.9685 19.2527 19.2527L18.4042 18.4042C17.9484 18.8599 17.3319 19.1214 16.3091 19.2589C15.2692 19.3987 13.9026 19.4 12 19.4V20.6ZM12 4.6C13.9026 4.6 15.2692 4.60127 16.3091 4.7411C17.3319 4.8786 17.9484 5.14011 18.4042 5.59584L19.2527 4.74731C18.5368 4.03146 17.6248 3.70719 16.469 3.5518C15.3305 3.39873 13.8687 3.4 12 3.4V4.6ZM20.6 12C20.6 10.1313 20.6013 8.66949 20.4482 7.53096C20.2928 6.37518 19.9685 5.46316 19.2527 4.74731L18.4042 5.59584C18.8599 6.05156 19.1214 6.66814 19.2589 7.69086C19.3987 8.73084 19.4 10.0974 19.4 12H20.6ZM12 3.4C10.1313 3.4 8.66949 3.39873 7.53096 3.5518C6.37518 3.70719 5.46316 4.03146 4.74731 4.74731L5.59584 5.59584C6.05156 5.14011 6.66814 4.8786 7.69086 4.7411C8.73084 4.60127 10.0974 4.6 12 4.6V3.4ZM4.6 12C4.6 10.0974 4.60127 8.73084 4.7411 7.69086C4.8786 6.66814 5.14011 6.05156 5.59584 5.59584L4.74731 4.74731C4.03146 5.46316 3.70719 6.37518 3.5518 7.53096C3.39873 8.66949 3.4 10.1313 3.4 12H4.6ZM8.80078 16.6H10.9341V15.4H8.80078V16.6ZM10.9341 16.6H13.0674V15.4H10.9341V16.6ZM10.9341 8.6H13.0674V7.4H10.9341V8.6ZM13.0674 8.6H15.2008V7.4H13.0674V8.6ZM11.5139 16.1546L13.6472 8.1546L12.4877 7.8454L10.3544 15.8454L11.5139 16.1546Z" fill="#0166FF"/>
</svg>

<svg xmlns="http://www.w3.org/2000/svg" width="24" height="24" fill="none"><path fill="#0166FF" d="M8.8 15.4a.6.6 0 1 0 0 1.2zm4.267 1.2a.6.6 0 1 0 0-1.2zm-2.133-9.2a.6.6 0 1 0 0 1.2zm4.267 1.2a.6.6 0 1 0 0-1.2zM12 19.4c-1.903 0-3.27-.001-4.31-.141-1.022-.138-1.638-.4-2.094-.855l-.849.849c.716.715 1.628 1.04 2.784 1.195 1.138.153 2.6.152 4.469.152zM3.4 12c0 1.869-.001 3.33.152 4.469.155 1.156.48 2.068 1.195 2.784l.849-.849c-.456-.456-.717-1.072-.855-2.095C4.601 15.27 4.6 13.903 4.6 12zm16 0c0 1.903-.001 3.27-.141 4.31-.138 1.022-.4 1.638-.855 2.094l.849.849c.715-.716 1.04-1.628 1.195-2.784.153-1.139.152-2.6.152-4.469zM12 20.6c1.869 0 3.33.001 4.469-.152 1.156-.155 2.068-.48 2.784-1.195l-.849-.849c-.456.456-1.072.717-2.095.855-1.04.14-2.406.141-4.309.141zm0-16c1.903 0 3.27.001 4.31.141 1.022.138 1.638.4 2.094.855l.849-.849c-.716-.716-1.628-1.04-2.784-1.195C15.33 3.399 13.869 3.4 12 3.4zm8.6 7.4c0-1.869.001-3.33-.152-4.469-.155-1.156-.48-2.068-1.195-2.784l-.849.849c.456.456.717 1.072.855 2.095.14 1.04.141 2.406.141 4.309zM12 3.4c-1.869 0-3.33-.001-4.469.152-1.156.155-2.068.48-2.784 1.195l.849.849c.456-.456 1.072-.717 2.095-.855C8.73 4.601 10.097 4.6 12 4.6zM4.6 12c0-1.903.001-3.27.141-4.31.138-1.022.4-1.638.855-2.094l-.849-.849c-.716.716-1.04 1.628-1.195 2.784C3.399 8.669 3.4 10.131 3.4 12zm4.2 4.6h2.134v-1.2H8.801zm2.134 0h2.133v-1.2h-2.133zm0-8h2.133V7.4h-2.133zm2.133 0h2.134V7.4h-2.134zm-1.553 7.555 2.133-8-1.16-.31-2.133 8z"/></svg>
